docs/themes/v2/source/images/design/enterprise-icon.svg

<svg fill="none" height="12" viewBox="0 0 12 12" width="12" xmlns="http://www.w3.org/2000/svg"><g clip-rule="evenodd" fill="#fff" fill-rule="evenodd"><path d="m5.1394 0c-.62914 0-1.13916.510018-1.13916 1.13916v5.72169c0 .00106.00001.00212.00001.00317v-2.86399h3.99988v3.99998h2.86077c.6291 0 1.1391-.51002 1.1391-1.13916v-5.72169c0-.629141-.51-1.13916-1.1391-1.13916z"/><path d="m6.8606 12c.62914 0 1.13916-.51 1.13916-1.1392v-2.86083h-3.99986v-3.99998h-2.86076c-.629135 0-1.13915383.51002-1.13915383 1.13916v5.72165c0 .6292.51001883 1.1392 1.13915383 1.1392z"/></g></svg>

<svg width="12" height="12" viewBox="0 0 12 12" fill="none" xmlns="http://www.w3.org/2000/svg">
<path fill-rule="evenodd" clip-rule="evenodd" d="M5.1394 0C4.51026 0 4.00024 0.510018 4.00024 1.13916V6.86085C4.00024 6.86191 4.00025 6.86297 4.00025 6.86402V4.00003H8.00013V8.00001H10.8609C11.49 8.00001 12 7.48999 12 6.86085V1.13916C12 0.510019 11.49 0 10.8609 0H5.1394Z" fill="#ffffff"/>
<path fill-rule="evenodd" clip-rule="evenodd" d="M6.8606 12C7.48974 12 7.99976 11.49 7.99976 10.8608V7.99997H3.9999V3.99999H1.13914C0.510005 3.99999 -1.38283e-05 4.51001 -1.38283e-05 5.13915V10.8608C-1.38283e-05 11.49 0.510005 12 1.13914 12H6.8606Z" fill="#ffffff"/>
</svg>
